X: 1
T: Beauty Spot, The
M: C|
L: 1/8
R: reel
Z: Dow
K: Dmix
A3G A2dB|~c3G EFGE|A2AG AddB|cBcG EDDG|
A3G A2dB|~c3G EFGE|A3c ~B3d|cBcG EDD2||
ed~d2 edcd|ed~d2 eaag|ed~d2 edcA|GAcd ed~d2|
ed~d2 edcd|ed~d2 eaag|fgef decA|GAcd egdc||
